X:1
T:Last Night's Fun  "Arranged by Terry Tully"
M:C
L:1/8
Q:80
C:Traditional Irish
S:Reel
K:HP
|: {g}eA{g}c{d}A{gef}e2af | \
{g}eA{g}c{d}A{g}BA{g}Gf | \
{g}eA{g}c{d}A{gef}e2af |
{g}ec{g}dB{g}cA{gAGAG}A2:| [ | \
{ag}a2ea{g}ag{a}ed | \
{g}cA{gAGAG}A2{g}BA{g}G{d}B |
{ag}a2ea{g}ag{a}ed | \
{g}ce{g}dB{g}cA{gAGAG}A2{ag}a2ea{g}ag{a}ed | \
{g}cA{gAGAG}A2{g}BA{g}G{d}B |
{g}eA{g}c{d}A{gef}e2af | \
{g}ec{g}dB{g}cA{gAGAG}A2|]
